Sources/FrostedUI/Resources/Icons.xcassets/rocket32.imageset/rocket-32.svg

<svg width="32" height="32" viewBox="0 0 32 32" fill="none" xmlns="http://www.w3.org/2000/svg" data-fui-icon="true">
  <path
    d="M8.4624 25.5238C8.75113 25.2274 9.22611 25.2208 9.52295 25.5092C9.81984 25.7978 9.82603 26.2727 9.5376 26.5697L7.31592 28.8558C7.02722 29.1527 6.55236 29.1591 6.25537 28.8705C5.95858 28.5818 5.95128 28.1069 6.23975 27.8099L8.4624 25.5238ZM5.49951 22.4769C5.78819 22.1803 6.26315 22.1729 6.56006 22.4613C6.85693 22.7499 6.86309 23.2248 6.57471 23.5219L2.87158 27.3314C2.58295 27.6283 2.10805 27.6355 1.81104 27.347C1.51428 27.0584 1.50704 26.5835 1.79541 26.2865L5.49951 22.4769ZM26.9419 2.97009C28.1354 2.87604 29.1238 3.86451 29.0298 5.05798C28.6366 10.0315 26.1342 13.8793 22.4175 17.351V22.8744C22.4175 23.589 22.0505 24.2505 21.4536 24.6312L21.3315 24.7035L16.6646 27.2494C15.2764 28.0062 13.5836 27.0015 13.5835 25.4203V23.1615L8.83838 18.4164H6.57959C4.99842 18.4162 3.99359 16.7235 4.75049 15.3353L7.29639 10.6683C7.66156 9.99946 8.36338 9.5824 9.12549 9.5824H14.6499C18.1214 5.86596 21.9686 3.36324 26.9419 2.97009ZM15.0835 23.2133V25.4203C15.0836 25.8628 15.5579 26.1441 15.9468 25.932L20.6128 23.3871C20.8 23.2847 20.9175 23.0876 20.9175 22.8744V18.5795L15.0835 23.2133ZM27.0601 4.46619C22.4965 4.82696 18.9184 7.14263 15.5405 10.8226L10.1509 17.6078L14.3911 21.848L21.1763 16.4584C24.8563 13.0805 27.1739 9.5034 27.5347 4.93982C27.556 4.6659 27.334 4.44479 27.0601 4.46619ZM9.12549 11.0824C8.91222 11.0824 8.71509 11.2 8.61279 11.3871L6.06787 16.0531C5.85585 16.4418 6.13699 16.9162 6.57959 16.9164H8.78564L13.4194 11.0824H9.12549ZM21.6567 8.03162C22.8992 8.03188 23.9067 9.03914 23.9067 10.2816C23.9065 11.5239 22.899 12.5314 21.6567 12.5316C20.4142 12.5316 19.407 11.5241 19.4067 10.2816C19.4067 9.03898 20.4141 8.03162 21.6567 8.03162Z"
    fill="currentColor"
  />
</svg>

<svg xmlns="http://www.w3.org/2000/svg" width="32" height="32" fill="none" data-fui-icon="true" viewBox="0 0 32 32"><path fill="currentColor" d="M8.462 25.524a.75.75 0 0 1 1.076 1.046l-2.222 2.286A.75.75 0 0 1 6.24 27.81zM5.5 22.477a.75.75 0 0 1 1.075 1.045l-3.703 3.81a.75.75 0 0 1-1.077-1.046zM26.942 2.97a1.938 1.938 0 0 1 2.088 2.088c-.393 4.974-2.896 8.821-6.613 12.293v5.523c0 .715-.367 1.377-.963 1.757l-.123.072-4.666 2.546c-1.389.757-3.081-.247-3.081-1.829v-2.259l-4.746-4.745H6.58c-1.582 0-2.586-1.692-1.83-3.08l2.546-4.668a2.09 2.09 0 0 1 1.83-1.086h5.524c3.471-3.716 7.319-6.219 12.292-6.612M15.084 23.213v2.207c0 .443.474.724.863.512l4.666-2.545a.59.59 0 0 0 .305-.513V18.58zM27.06 4.466c-4.563.361-8.142 2.677-11.52 6.357l-5.39 6.785 4.241 4.24 6.785-5.39c3.68-3.377 5.998-6.955 6.359-11.518a.437.437 0 0 0-.475-.474M9.125 11.082a.59.59 0 0 0-.512.305l-2.545 4.666a.584.584 0 0 0 .512.863h2.206l4.633-5.834zm12.532-3.05a2.25 2.25 0 1 1-.001 4.5 2.25 2.25 0 0 1 0-4.5"/></svg>
